X: 34701
T: Road To Frustration, The
R: jig
M: 6/8
K: Eminor
D|:EGB cBG|ABc B2 G|ABc BAG|~F3 AFD|EGB cBG|
[1 ABc B2 G|AGF GFD|B,DF GFD:|2 ABc B2 A|GBd gfd|e3 efg||
|:bge bge|afd fga|~g3 efg|fdf agf|egg edc|~B3 GAB|
[1 cBA cde|fed fga:|2 AGF GFD|B,DF GFD||

